X:1
T:Title
%%score { 1 | 2 }
L:1/8
Q:1/4=88
M:2/4
K:Eb
V:1 treble nm="Grand Piano"
V:2 bass 
V:1
 [GB][EG] [EG][GB] | [Ac][GB] [EG][DF] | [DF]>[EG] [FA][DF] | [EG][Ac] [GB]2 | [GB][EG] [EG][GB] | %5
w: David~Colvin * * *|||||
[M:9/16] [Ac][GB]/-[GB]/[EAc][CAe]3/2 |[M:2/4] [EGB]>[B,EG] [B,FA][A,DF] | [G,E]4 | %8
w: |||
 [Ec]>[Ec] [Ec][CEe] | [CAe][EAc] [EGB][B,EG] | [B,FA]>[B,FA] [B,FA][B,DF] | [B,EG][EAc] [EGB]2 | %12
w: ||||
 [EAc]>[EAc] [EAc][CAe] | [CAe][EAc] [EGB][B,EG] | [FA]>[EG] [DF][DB] | E4 |] %16
w: ||||
V:2
 [E,E][E,B,] [E,B,][E,E] | [E,E][E,B,] [B,,B,][B,,B,] | [B,,B,]>[B,,B,] [B,,B,][B,,B,] | %3
 [E,B,][E,E] [E,E]2 | [E,E][E,B,] [E,B,][E,E] |[M:9/16] [E,E][E,E]/-[E,E]/A,,A,,3/2 | %6
[M:2/4] B,,>B,, B,,B,, | E,4 | [A,,A,]>[A,,A,] [A,,A,]A,, | A,,C, E,E, | B,,>B,, B,,B,, | %11
 E,E, E,2 | A,,>A,, A,,A,, | A,,C, E,E, | [B,,B,]>[B,,B,] [B,,A,][B,,F,] | [E,G,]4 |] %16

